!!!OTL: Marienlied des 15. Jahrhunderts.
!!!ARE: Europa, Mitteleuropa, Deutschland
!!!SCT: A0602
!!!TXL: @@DE
!!!YEM: Copyright 1995, estate of Helmut Schaffrath.
**kern	**text
*M6/2	*
*met(c|)	*
*clefC4	*
*k[b-]	*
*F:ion	*
!LO:TX:a:t=jon.	!
{1F	Frö-
=1	=1
1A	-lich
2A	ſo
1B-	will
2c	ich
=2	=2
1c	ſin-
1B-	-gen,
2r}	.
{2A	mit
=3	=3
1G	luſt
2F	ein
1F	Ta-
2G	-ge-
=4	=4
*lig	*
1A	-weis,}
1G}	.
*Xlig	*
{1F	Wie
=5	=5
1A	ich
2A	ʒu
1B-	ghör
2c	mög
=6	=6
1c	brin-
1B-	-gen
2r}	.
{2A	Ma-
=7	=7
1G	-ri-
2F	-e
1F	lob
2G	vnd
=8	=8
*lig	*
1A	preis:}
1G}	.
*Xlig	*
{1A	Wie's
=9	=9
2G	iſt
1B-	wor-
2A/	-den
1G	em-
=10	=10
1E	-pfan-
1C}	-gen,
{1C	die
=11	=11
1F	e-
2E	-del
1F	jungfraw
2G	.
=12	=12
*lig	*
1A	fein,
1G}	.
*Xlig	*
{1F	das
=13	=13
1A	in
2A	die
1B-	welt
2c	ſol
=14	=14
1c	lan-
1B-}	-gen
{1A	durch
=15	=15
1B-	pre-
2A	-dig
1G	vnd
2F	ge-
=16	=16
1E	-ſan-
1C	-gen
2r}	.
{2C	tut
=17	=17
1F	ſy
2E	mir
1F	hilf-
2B-	-fe
=18	=18
*lig	*
2A/	ſchein.
2G	.
1F;/ll}	.
*Xlig	*
==	==
!!!GTL: Geistliche Volkslieder
!!!AGN: Romanze, Ballade, Lied, religioeses Lied
!! Hs Muenchner Bibl. 1506
!!!ONB: ESAC (Essen Associative Code) Database: ALTDEU
!!!AMT: compound duple
!!!AIN: vox
!!!EED: Helmut Schaffrath
!!!EEV: 1.0
!!!RDF**kern: l = terminal long
!!!AMD: Ionian
!!!URL-scan: https://rosdok.uni-rostock.de/mcrviewer/recordIdentifier/rosdok_ppn738218359/iview2/phys_0783.iview2?x=143.2775742772492&y=2700.6814378583804&scale=0.7052832894250849&rotation=0&layout=singlePageLayout&logicalDiv=log_0021
!!!ENC: Anna Maria Matuszewska
!!!EEV: 2024/22/03
*-	*-
